brandFactory_export/1.Light/Urgencia urgente sirena 2 _1Light.svg

<?xml version="1.0" encoding="UTF-8"?>
<svg width="24px" height="24px" viewBox="0 0 24 24" version="1.1" xmlns="http://www.w3.org/2000/svg" xmlns:xlink="http://www.w3.org/1999/xlink">
    <title>1.Light/Urgencia urgente sirena 2 _1Light</title>
    <g id="Symbols" stroke="none" stroke-width="1" fill="none" fill-rule="evenodd">
        <g id="1.Light/Urgencia-urgente-sirena-2-_1Light" fill="#5CB615" fill-rule="nonzero">
            <path d="M19.8352941,22.6285714 C20.0705882,22.6285714 20.2756303,22.4773109 20.2991597,22.410084 L20.2957983,19.8991597 C20.2722689,19.8588235 20.0705882,19.707563 19.8352941,19.707563 L3.88907563,19.707563 C3.64033613,19.707563 3.45546218,19.8487395 3.42857143,19.9092437 L3.42857143,22.4369748 C3.44537815,22.4806723 3.63361345,22.6285714 3.88907563,22.6285714 L19.8352941,22.6285714 Z M5.30756303,11.4554622 L5.30756303,18.6890756 L18.4134454,18.6890756 L18.4134454,11.4554622 C18.4134454,7.08571429 16.2084034,4.87058824 11.8588235,4.87058824 C7.51260504,4.87058824 5.30756303,7.08571429 5.30756303,11.4554622 Z M19.8352941,18.7159664 C20.6084034,18.7159664 21.2840336,19.2672269 21.2840336,19.8991597 L21.2840336,22.4369748 C21.2840336,23.0655462 20.605042,23.6201681 19.8352941,23.6201681 L3.88907563,23.6201681 C3.10252101,23.6201681 2.44033613,23.0789916 2.44033613,22.4369748 L2.44033613,19.8991597 C2.44033613,19.2571429 3.10588235,18.7159664 3.88907563,18.7159664 L4.32268908,18.7159664 L4.32268908,11.4521008 C4.32268908,6.49747899 6.93109244,3.87563025 11.8621849,3.87563025 C16.7966387,3.87563025 19.405042,6.49411765 19.405042,11.4521008 L19.405042,18.712605 L19.8352941,18.712605 L19.8352941,18.7159664 L19.8352941,18.7159664 Z M11.8621849,2.79663866 C11.589916,2.79663866 11.3680672,2.57478992 11.3680672,2.29915966 L11.3680672,0.497478992 C11.3680672,0.225210084 11.589916,0.00336134454 11.8621849,0.00336134454 C12.1344538,0.00336134454 12.3563025,0.225210084 12.3563025,0.497478992 L12.3563025,2.30252101 C12.3563025,2.57478992 12.1344538,2.79663866 11.8621849,2.79663866 Z M2.78655462,8.83361345 C2.78655462,9.10588235 2.56470588,9.32773109 2.29243697,9.33109244 L0.494117647,9.33109244 C0.221848739,9.32773109 0,9.1092437 0,8.83361345 L0,8.8302521 C0,8.55462185 0.221848739,8.33277311 0.494117647,8.33277311 L2.28907563,8.33277311 C2.56134454,8.33613445 2.78319328,8.55798319 2.78655462,8.83361345 L2.78655462,8.83361345 Z M23.1294118,8.3697479 C23.4016807,8.3697479 23.6235294,8.59159664 23.6235294,8.86386555 C23.6235294,9.13613445 23.4016807,9.35798319 23.1294118,9.35798319 L21.3310924,9.35798319 C21.0588235,9.35798319 20.8369748,9.13613445 20.8369748,8.86386555 L20.8369748,8.8605042 C20.8369748,8.58823529 21.0588235,8.36302521 21.3310924,8.36302521 L23.1294118,8.3697479 L23.1294118,8.3697479 Z M4.23193277,4.23865546 L2.96134454,2.96470588 C2.7697479,2.7697479 2.7697479,2.45714286 2.96134454,2.26218487 C3.15294118,2.07058824 3.46554622,2.06722689 3.65714286,2.25882353 L3.6605042,2.26218487 L4.93109244,3.53613445 C5.12268908,3.73109244 5.11932773,4.04705882 4.92436975,4.24201681 C4.83361345,4.33277311 4.71260504,4.38319328 4.58487395,4.38319328 C4.45042017,4.38319328 4.32605042,4.33277311 4.23193277,4.23865546 Z M18.1714286,4.23529412 C17.8991597,4.23529412 17.6773109,4.01680672 17.6739496,3.74117647 C17.6739496,3.61008403 17.7277311,3.48235294 17.8218487,3.38823529 L19.092437,2.11092437 C19.2840336,1.91932773 19.5966387,1.91596639 19.7882353,2.10756303 L19.7915966,2.11092437 C19.9831933,2.30588235 19.9831933,2.61848739 19.7915966,2.81344538 L18.5210084,4.0907563 C18.4302521,4.18487395 18.302521,4.23865546 18.1714286,4.23529412 L18.1714286,4.23529412 Z" id="Urgencia-urgente-sirena-2-_1Light"></path>
        </g>
    </g>
</svg>

<svg width="24" height="24" viewBox="0 0 24 24" xmlns="http://www.w3.org/2000/svg"><path d="M19.835 22.629c.236 0 .44-.152.464-.219l-.003-2.51c-.024-.041-.225-.192-.46-.192H3.888c-.249 0-.434.14-.46.201v2.528c.016.044.205.192.46.192h15.946zM5.308 11.455v7.234h13.105v-7.234c0-4.37-2.205-6.584-6.554-6.584-4.346 0-6.551 2.215-6.551 6.584zm14.527 7.261c.773 0 1.449.551 1.449 1.183v2.538c0 .629-.679 1.183-1.449 1.183H3.89c-.786 0-1.449-.541-1.449-1.183v-2.538c0-.642.666-1.183 1.45-1.183h.433v-7.264c0-4.955 2.608-7.576 7.54-7.576 4.934 0 7.542 2.618 7.542 7.576v7.26h.43v.004zm-7.973-15.92a.496.496 0 01-.494-.497V.497a.495.495 0 01.988 0v1.806a.495.495 0 01-.494.494zM2.787 8.835a.5.5 0 01-.495.497H.494A.498.498 0 010 8.834V8.83c0-.275.222-.497.494-.497H2.29a.506.506 0 01.498.5zm20.342-.464a.495.495 0 010 .988h-1.798a.495.495 0 01-.494-.494V8.86c0-.273.222-.498.494-.498l1.798.007zM4.232 4.239l-1.27-1.274a.501.501 0 010-.703.493.493 0 01.695-.003l.004.003 1.27 1.274a.502.502 0 01-.007.706.493.493 0 01-.692-.003zm13.94-.004a.498.498 0 01-.498-.494c0-.13.054-.259.148-.353l1.27-1.277a.493.493 0 01.696-.003l.004.003a.501.501 0 010 .702L18.52 4.091a.472.472 0 01-.35.144z" fill="#5CB615" fill-rule="nonzero"/></svg>
